X:402
T:The Peerie house ahint the burn
R:Reel
O:Shetland Islands
B:Robin Williamson p46
S:Richard Robinson's web page/abc file
Z:ReTranscription, arrangement, chords:Mike Long
M:C|
L:1/8
K:G
dB|\
"G"GABc dBG2|"C"g2fg e2dc|"G"BGBd cABG|"D"ABAG E2D2|\
"G"GABc dBG2|"C"g2fg e2dc|
"G"BGBd "D"cAFA|"G"G2G2 G2d2:|\
"D"fefg afd2|"G"g2fg "C"e2dc|"G"BGBd cABG|"D"ABAG E2D2|
defg afd2|"G"g2fg "C"e2dc|"G"BGBd "D"cAFA|"G"G2G2 G2g2|\
"D"fefg afd2|"G"g2fg "C"e2dc|
"G"BGBd cABG|"D"ABAG E2D2|\
"G"GABc dBG2|"C"g2fg e2dc|"G"BGBd "D"cAFA|"G"G2G2 G2|]
